X:1
T:Title
%%score { ( 1 3 ) | ( 2 4 5 ) }
L:1/8
Q:1/4=220
M:4/2
K:E
V:1 treble nm="Grand Piano"
V:3 treble 
V:2 bass 
V:4 bass 
V:5 bass 
V:1
 [B,E]4 [DF]4 G4 E4 | F4 G4 A4 G4 | z8 A4 z4 | [EF]4 z4 z8 | [Ge]4 [Ad]4 [Ge]4 B4 | c4 B4 A4 G4 | %6
w: Webbe * * *||||||
 G8 z4 [Fd]4 | z4 c4 z8 | [EB]4 [FB]4 G4 E4 | z8 A4 z4 | z4 G4 c4 z4 | [EG]4 [DF]4 [G,E]8 |] %12
w: ||||||
V:2
 [E,G,]4 [B,,B,]4 [E,B,E]4 [G,B,]4 | [D,B,]4 [E,B,E]4 [F,B,D]4 [E,B,E]4 | z8 .[CE]4 z4 | %3
 B,,4 z2 A,2 E,8 | [E,B,]4 [F,B,]4 [E,B,]4 [G,B,E]4 | [A,E]4 [G,B,E]4 [F,B,D]4 [E,B,E]4 | %6
 C,4 z2 F2 [C,C]4 .[D,B,]4 | [F,B,]4 z4 z8 | [G,B,]4 [D,B,]4 [E,B,E]4 [G,B,]4 | %9
 [A,B,D]4 [G,B,E]4 [CE]2 B,2 [E,B,E]4 | E4- [E,B,E]4 .[A,C]4 E2- [A,CE]2 | B,8 z8 |] %12
V:3
 x16 | x16 | c4 B4 z2 D2 [B,EG]4 | B,4- [B,DF]4 [G,E]8 | x16 | x16 | [Ec]4 [Dd]4 [Ee]4 z2 E,2 | %7
 c4 z2 E2 [DB]8 | x16 | F4 G4 z2 D2 G4 | B4 z2 D2 z2 D2 B2 A2 | x16 |] %12
V:4
 x16 | x16 | [A,E]4 [G,B,E]4 F,2- [F,A,]2 E,4 | z4 B,,4 z8 | x16 | x16 | z4 ^B,,4 z8 | %7
 F4- [F,,^A,F]4 [B,,B,]8 | x16 | z8 F,4 z4 | [G,B,]4 z4 z4 .[G,B,]4 | z4 z2 A,2 E,8 |] %12
V:5
 x16 | x16 | x16 | x16 | x16 | x16 | x16 | x16 | x16 | x16 | x16 | z4 B,,4 z8 |] %12

